packages/admin/admin-icons/icons/phone.svg

<svg xmlns="http://www.w3.org/2000/svg" width="16" height="16" viewBox="0 0 16 16"><path fill="#242424" fill-rule="evenodd" d="M2.53129069,0.223913098 L1.30346757,0.960707437 C0.76065163,1.27747379 0.357325588,1.79907528 0.183431217,2.4095924 C-0.534668587,5.02428019 0.852088553,8.12386295 4.36322202,11.6349881 C7.87413246,15.1458902 10.9749651,16.5344315 13.579316,15.8182692 C14.2017631,15.6409376 14.7232882,15.2371688 15.0445587,14.6862987 L15.7748316,13.4691111 C16.2086475,12.7447969 15.9977734,11.8083233 15.2957761,11.3404251 L12.351472,9.37790186 L12.2192216,9.29935154 C11.5461116,8.94179439 10.7068673,9.11023587 10.2294424,9.71834176 L9.554,10.586 L9.37542733,10.4852027 L9.10677941,10.3227715 C8.59758301,10.001664 8.1372397,9.62092177 7.43775645,8.93336545 L7.24963327,8.74681291 C7.12094383,8.618161 7.00269209,8.49792443 6.89346658,8.38460609 L6.59145716,8.06390865 C6.54516486,8.01341915 6.50077624,7.96428493 6.45811487,7.91631886 L6.21444557,7.63268079 C5.97502823,7.34316232 5.78250113,7.07132345 5.5933967,6.75810372 L5.412,6.445 L6.27668261,5.77367923 C6.92908644,5.2627445 7.07962484,4.34066208 6.62425443,3.65211554 L4.65761519,0.703446662 C4.18953148,0.00262133057 3.25451339,-0.208108745 2.53129069,0.223913098 Z M3.82585874,1.25858727 L5.79123994,4.20536329 C5.95780094,4.45722008 5.90238716,4.79664232 5.66142182,4.98535736 L4.55622055,5.84496 C4.30453936,6.038006 4.23681877,6.38738811 4.39238951,6.66569835 L4.56280433,6.97447775 L4.73302964,7.26770907 C4.95177806,7.63016629 5.17287053,7.94233806 5.45000144,8.27730263 L5.70530526,8.57450234 C5.79860019,8.67944142 5.89770069,8.78763778 6.00453964,8.9011932 L6.3502047,9.26003844 L6.7351944,9.64498457 C7.48338986,10.3804292 7.99672955,10.8050039 8.58153799,11.1736723 L8.86569532,11.3454922 L9.17886742,11.5216674 L9.34121745,11.610859 C9.61803176,11.7656422 9.96571534,11.6893513 10.1599854,11.4362696 L11.0173716,10.3341035 C11.2035568,10.0969637 11.5427407,10.0423046 11.7987418,10.211259 L14.7411508,12.1725253 C14.9991518,12.3444893 15.0766453,12.688631 14.9171238,12.9549737 L14.1838856,14.1771784 C13.9898094,14.5098773 13.6798592,14.7498431 13.3097319,14.8553033 C11.1302723,15.4546041 8.35373746,14.2112822 5.07032796,10.9278805 C1.78663276,7.64419306 0.545004383,4.86899197 1.14645324,2.67897357 C1.24852538,2.32069523 1.48821788,2.01071284 1.81273932,1.82129155 L3.04496656,1.08189685 C3.31003541,0.92355737 3.65384425,1.00104342 3.82585874,1.25858727 Z"/></svg>

<svg width="16" height="16" fill="none" viewBox="0 0 16 16">
  <path fill="#242424" fill-rule="evenodd" d="M2.532.224 1.304.961A2.46 2.46 0 0 0 .184 2.41c-.718 2.614.668 5.714 4.18 9.225 3.51 3.51 6.611 4.9 9.216 4.183a2.472 2.472 0 0 0 1.465-1.132l.73-1.217a1.581 1.581 0 0 0-.479-2.128l-2.944-1.963-.132-.079a1.584 1.584 0 0 0-1.99.42l-.676.867-.178-.1-.269-.163c-.51-.321-.97-.702-1.669-1.39l-.188-.186a27.472 27.472 0 0 1-.356-.362l-.302-.321-.134-.148-.243-.283a7.016 7.016 0 0 1-.621-.875l-.182-.313.865-.671a1.585 1.585 0 0 0 .348-2.122L4.658.703A1.582 1.582 0 0 0 2.532.224Zm1.294 1.035 1.966 2.946a.583.583 0 0 1-.13.78l-1.105.86a.64.64 0 0 0-.164.82l.17.31.17.293c.22.362.44.674.717 1.01l.256.297c.093.104.192.213.299.326l.346.36.385.384c.748.736 1.261 1.16 1.846 1.529l.284.171.313.177.163.089a.64.64 0 0 0 .818-.175l.858-1.102a.583.583 0 0 1 .781-.123l2.943 1.962a.581.581 0 0 1 .175.782l-.733 1.222a1.473 1.473 0 0 1-.874.678c-2.18.6-4.956-.644-8.24-3.927C1.788 7.644.546 4.869 1.148 2.679a1.46 1.46 0 0 1 .666-.858l1.232-.74a.581.581 0 0 1 .781.178Z" clip-rule="evenodd"/>
</svg>
